TileServer und Tiles/svg/9/110_27.svg

<?xml version='1.0' encoding='UTF-8' standalone='no'?>
<svg xmlns="http://www.w3.org/2000/svg" width="497pt" viewBox="0 0 497 279" xmlns:xlink="http://www.w3.org/1999/xlink" height="279pt">
 <defs style="stroke:none;" overflow="visible">
  <path id="glyph0-8" d="M 1.9375 0.09375 C 1.507812 0.09375 1.160156 -0.0546875 0.890625 -0.359375 C 0.617188 -0.660156 0.484375 -1.117188 0.484375 -1.734375 C 0.484375 -2.222656 0.539062 -2.6875 0.65625 -3.125 C 0.78125 -3.570312 0.957031 -3.96875 1.1875 -4.3125 C 1.414062 -4.664062 1.691406 -4.941406 2.015625 -5.140625 C 2.335938 -5.347656 2.703125 -5.453125 3.109375 -5.453125 C 3.472656 -5.453125 3.757812 -5.359375 3.96875 -5.171875 C 4.1875 -4.992188 4.347656 -4.78125 4.453125 -4.53125 L 4.515625 -4.53125 C 4.546875 -4.757812 4.578125 -4.972656 4.609375 -5.171875 C 4.640625 -5.378906 4.679688 -5.601562 4.734375 -5.84375 L 5.09375 -7.59375 L 5.96875 -7.59375 L 4.359375 0 L 3.640625 0 L 3.75 -0.984375 L 3.703125 -0.984375 C 3.460938 -0.691406 3.195312 -0.4375 2.90625 -0.21875 C 2.625 -0.0078125 2.300781 0.09375 1.9375 0.09375 Z M 2.234375 -0.625 C 2.453125 -0.625 2.671875 -0.707031 2.890625 -0.875 C 3.117188 -1.039062 3.328125 -1.257812 3.515625 -1.53125 C 3.710938 -1.8125 3.867188 -2.132812 3.984375 -2.5 C 4.109375 -2.863281 4.171875 -3.242188 4.171875 -3.640625 C 4.171875 -3.960938 4.09375 -4.222656 3.9375 -4.421875 C 3.78125 -4.617188 3.523438 -4.71875 3.171875 -4.71875 C 2.898438 -4.71875 2.65625 -4.628906 2.4375 -4.453125 C 2.226562 -4.285156 2.039062 -4.054688 1.875 -3.765625 C 1.71875 -3.484375 1.59375 -3.160156 1.5 -2.796875 C 1.414062 -2.441406 1.375 -2.078125 1.375 -1.703125 C 1.375 -0.984375 1.660156 -0.625 2.234375 -0.625 Z M 2.234375 -0.625 "/>
  <path id="glyph0-7" d="M 0.234375 0 L 1.390625 -5.390625 L 2.171875 -5.390625 L 2.0625 -4.40625 C 2.195312 -4.570312 2.347656 -4.738281 2.515625 -4.90625 C 2.679688 -5.070312 2.878906 -5.207031 3.109375 -5.3125 C 3.335938 -5.425781 3.59375 -5.484375 3.875 -5.484375 C 4.3125 -5.484375 4.648438 -5.363281 4.890625 -5.125 C 5.140625 -4.894531 5.265625 -4.566406 5.265625 -4.140625 C 5.265625 -3.984375 5.25 -3.828125 5.21875 -3.671875 C 5.195312 -3.515625 5.175781 -3.375 5.15625 -3.25 L 4.4375 0 L 3.5 0 L 4.21875 -3.375 C 4.25 -3.519531 4.269531 -3.644531 4.28125 -3.75 C 4.300781 -3.851562 4.3125 -3.953125 4.3125 -4.046875 C 4.3125 -4.472656 4.085938 -4.6875 3.640625 -4.6875 C 3.421875 -4.6875 3.179688 -4.609375 2.921875 -4.453125 C 2.671875 -4.304688 2.429688 -4.054688 2.203125 -3.703125 C 1.984375 -3.359375 1.8125 -2.894531 1.6875 -2.3125 L 1.1875 0 Z M 0.234375 0 "/>
  <path id="glyph0-6" d="M 1.9375 0.09375 C 1.507812 0.09375 1.160156 -0.0546875 0.890625 -0.359375 C 0.617188 -0.671875 0.484375 -1.128906 0.484375 -1.734375 C 0.484375 -2.234375 0.546875 -2.707031 0.671875 -3.15625 C 0.804688 -3.601562 0.988281 -4 1.21875 -4.34375 C 1.445312 -4.6875 1.722656 -4.957031 2.046875 -5.15625 C 2.367188 -5.351562 2.722656 -5.453125 3.109375 -5.453125 C 3.460938 -5.453125 3.75 -5.359375 3.96875 -5.171875 C 4.1875 -4.992188 4.347656 -4.78125 4.453125 -4.53125 L 4.515625 -4.53125 L 4.828125 -5.359375 L 5.5 -5.359375 L 4.359375 0 L 3.65625 0 L 3.796875 -0.984375 L 3.75 -0.984375 C 3.519531 -0.691406 3.25 -0.4375 2.9375 -0.21875 C 2.632812 -0.0078125 2.300781 0.09375 1.9375 0.09375 Z M 2.21875 -0.625 C 2.46875 -0.625 2.707031 -0.710938 2.9375 -0.890625 C 3.175781 -1.078125 3.390625 -1.320312 3.578125 -1.625 C 3.773438 -1.9375 3.925781 -2.28125 4.03125 -2.65625 C 4.082031 -2.851562 4.113281 -3.03125 4.125 -3.1875 C 4.144531 -3.351562 4.15625 -3.507812 4.15625 -3.65625 C 4.15625 -3.96875 4.066406 -4.222656 3.890625 -4.421875 C 3.722656 -4.617188 3.492188 -4.71875 3.203125 -4.71875 C 2.941406 -4.71875 2.703125 -4.632812 2.484375 -4.46875 C 2.265625 -4.3125 2.070312 -4.085938 1.90625 -3.796875 C 1.738281 -3.515625 1.609375 -3.191406 1.515625 -2.828125 C 1.421875 -2.472656 1.375 -2.097656 1.375 -1.703125 C 1.375 -1.347656 1.445312 -1.078125 1.59375 -0.890625 C 1.738281 -0.710938 1.945312 -0.625 2.21875 -0.625 Z M 2.21875 -0.625 "/>
  <path id="glyph0-5" d=""/>
  <path id="glyph0-4" d="M 1.546875 0.09375 C 1.222656 0.09375 0.9375 0.0625 0.6875 0 C 0.445312 -0.0625 0.234375 -0.140625 0.046875 -0.234375 L 0.046875 -1.046875 C 0.222656 -0.941406 0.441406 -0.84375 0.703125 -0.75 C 0.960938 -0.664062 1.234375 -0.625 1.515625 -0.625 C 1.910156 -0.625 2.210938 -0.703125 2.421875 -0.859375 C 2.628906 -1.015625 2.734375 -1.210938 2.734375 -1.453125 C 2.734375 -1.648438 2.664062 -1.8125 2.53125 -1.9375 C 2.40625 -2.070312 2.171875 -2.238281 1.828125 -2.4375 C 1.453125 -2.644531 1.164062 -2.863281 0.96875 -3.09375 C 0.78125 -3.320312 0.6875 -3.601562 0.6875 -3.9375 C 0.6875 -4.394531 0.847656 -4.757812 1.171875 -5.03125 C 1.503906 -5.3125 1.945312 -5.453125 2.5 -5.453125 C 2.820312 -5.453125 3.117188 -5.414062 3.390625 -5.34375 C 3.671875 -5.269531 3.914062 -5.1875 4.125 -5.09375 L 3.84375 -4.390625 C 3.664062 -4.472656 3.46875 -4.546875 3.25 -4.609375 C 3.039062 -4.679688 2.789062 -4.71875 2.5 -4.71875 C 2.207031 -4.71875 1.976562 -4.648438 1.8125 -4.515625 C 1.644531 -4.378906 1.5625 -4.203125 1.5625 -3.984375 C 1.5625 -3.816406 1.617188 -3.664062 1.734375 -3.53125 C 1.847656 -3.40625 2.082031 -3.242188 2.4375 -3.046875 C 2.664062 -2.910156 2.867188 -2.773438 3.046875 -2.640625 C 3.222656 -2.515625 3.363281 -2.363281 3.46875 -2.1875 C 3.570312 -2.019531 3.625 -1.804688 3.625 -1.546875 C 3.625 -1.003906 3.4375 -0.59375 3.0625 -0.3125 C 2.6875 -0.0390625 2.179688 0.09375 1.546875 0.09375 Z M 1.546875 0.09375 "/>
  <path id="glyph0-3" d="M 0.265625 0 L 1.875 -7.59375 L 2.765625 -7.59375 L 2.125 -4.578125 C 2.007812 -4.046875 1.910156 -3.632812 1.828125 -3.34375 C 1.742188 -3.050781 1.6875 -2.859375 1.65625 -2.765625 L 1.671875 -2.765625 L 4.203125 -5.359375 L 5.25 -5.359375 L 2.953125 -3.0625 L 4.375 0 L 3.40625 0 L 2.28125 -2.515625 L 1.5625 -1.9375 L 1.15625 0 Z M 0.265625 0 "/>
  <path id="glyph0-2" d="M 2.484375 0.078125 C 1.859375 0.078125 1.367188 -0.101562 1.015625 -0.46875 C 0.660156 -0.84375 0.484375 -1.347656 0.484375 -1.984375 C 0.484375 -2.390625 0.535156 -2.796875 0.640625 -3.203125 C 0.753906 -3.609375 0.921875 -3.976562 1.140625 -4.3125 C 1.367188 -4.644531 1.648438 -4.914062 1.984375 -5.125 C 2.328125 -5.332031 2.71875 -5.4375 3.15625 -5.4375 C 3.78125 -5.4375 4.269531 -5.25 4.625 -4.875 C 4.976562 -4.5 5.15625 -3.992188 5.15625 -3.359375 C 5.15625 -2.953125 5.097656 -2.546875 4.984375 -2.140625 C 4.867188 -1.734375 4.703125 -1.363281 4.484375 -1.03125 C 4.265625 -0.695312 3.988281 -0.425781 3.65625 -0.21875 C 3.320312 -0.0195312 2.929688 0.078125 2.484375 0.078125 Z M 2.53125 -0.65625 C 2.851562 -0.65625 3.144531 -0.765625 3.40625 -0.984375 C 3.664062 -1.203125 3.875 -1.519531 4.03125 -1.9375 C 4.1875 -2.363281 4.265625 -2.867188 4.265625 -3.453125 C 4.265625 -3.660156 4.226562 -3.859375 4.15625 -4.046875 C 4.082031 -4.234375 3.960938 -4.390625 3.796875 -4.515625 C 3.640625 -4.640625 3.429688 -4.703125 3.171875 -4.703125 C 2.804688 -4.703125 2.488281 -4.578125 2.21875 -4.328125 C 1.945312 -4.078125 1.738281 -3.742188 1.59375 -3.328125 C 1.445312 -2.910156 1.375 -2.453125 1.375 -1.953125 C 1.375 -1.535156 1.472656 -1.210938 1.671875 -0.984375 C 1.878906 -0.765625 2.164062 -0.65625 2.53125 -0.65625 Z M 2.53125 -0.65625 "/>
  <path id="glyph0-1" d="M 0.40625 0 L 1.921875 -7.140625 L 2.8125 -7.140625 L 1.453125 -0.796875 L 4.203125 -0.796875 L 4.03125 0 Z M 0.40625 0 "/>
  <path id="glyph0-0" d="M 0.9375 0 L 0.9375 -7.140625 L 5.046875 -7.140625 L 5.046875 0 Z M 1.453125 -0.515625 L 4.546875 -0.515625 L 4.546875 -6.625 L 1.453125 -6.625 Z M 1.453125 -0.515625 "/>
 </defs>
 <image width="497" xlink:href="svg/9/110_27.jpg" height="279"/>
 <g>
  <path d="M 197.625 199.691406 L 199.140625 192.550781 L 200.03125 192.550781 L 198.671875 198.894531 L 201.421875 198.894531 L 201.25 199.691406 Z M 197.625 199.691406 " transform=" rotate(  340 218.874 196.69) " style="fill:none;stroke-width:2;stroke-linecap:butt;stroke-linejoin:round;stroke:rgb(100%,100%,100%);stroke-opacity:0.6;stroke-miterlimit:10;"/>
  <path d="M 204.484375 199.769531 C 203.859375 199.769531 203.367188 199.589844 203.015625 199.222656 C 202.660156 198.847656 202.484375 198.34375 202.484375 197.707031 C 202.484375 197.300781 202.535156 196.894531 202.640625 196.488281 C 202.753906 196.082031 202.921875 195.714844 203.140625 195.378906 C 203.367188 195.046875 203.648438 194.777344 203.984375 194.566406 C 204.328125 194.359375 204.71875 194.253906 205.15625 194.253906 C 205.78125 194.253906 206.269531 194.441406 206.625 194.816406 C 206.976562 195.191406 207.15625 195.699219 207.15625 196.332031 C 207.15625 196.738281 207.097656 197.144531 206.984375 197.550781 C 206.867188 197.957031 206.703125 198.328125 206.484375 198.660156 C 206.265625 198.996094 205.988281 199.265625 205.65625 199.472656 C 205.320312 199.671875 204.929688 199.769531 204.484375 199.769531 Z M 204.53125 199.035156 C 204.851562 199.035156 205.144531 198.925781 205.40625 198.707031 C 205.664062 198.488281 205.875 198.171875 206.03125 197.753906 C 206.1875 197.328125 206.265625 196.824219 206.265625 196.238281 C 206.265625 196.03125 206.226562 195.832031 206.15625 195.644531 C 206.082031 195.457031 205.960938 195.300781 205.796875 195.175781 C 205.640625 195.050781 205.429688 194.988281 205.171875 194.988281 C 204.804688 194.988281 204.488281 195.113281 204.21875 195.363281 C 203.945312 195.613281 203.738281 195.949219 203.59375 196.363281 C 203.445312 196.78125 203.375 197.238281 203.375 197.738281 C 203.375 198.15625 203.472656 198.480469 203.671875 198.707031 C 203.878906 198.925781 204.164062 199.035156 204.53125 199.035156 Z M 204.53125 199.035156 " transform=" rotate(  340 218.874 196.69) " style="fill:none;stroke-width:2;stroke-linecap:butt;stroke-linejoin:round;stroke:rgb(100%,100%,100%);stroke-opacity:0.6;stroke-miterlimit:10;"/>
  <path d="M 207.894531 199.691406 L 209.503906 192.097656 L 210.394531 192.097656 L 209.753906 195.113281 C 209.636719 195.644531 209.539062 196.058594 209.457031 196.347656 C 209.371094 196.640625 209.316406 196.832031 209.285156 196.925781 L 209.300781 196.925781 L 211.832031 194.332031 L 212.878906 194.332031 L 210.582031 196.628906 L 212.003906 199.691406 L 211.035156 199.691406 L 209.910156 197.175781 L 209.191406 197.753906 L 208.785156 199.691406 Z M 207.894531 199.691406 " transform=" rotate(  340 218.874 196.69) " style="fill:none;stroke-width:2;stroke-linecap:butt;stroke-linejoin:round;stroke:rgb(100%,100%,100%);stroke-opacity:0.6;stroke-miterlimit:10;"/>
  <path d="M 214.125 199.785156 C 213.800781 199.785156 213.515625 199.753906 213.265625 199.691406 C 213.023438 199.628906 212.8125 199.550781 212.625 199.457031 L 212.625 198.644531 C 212.800781 198.75 213.019531 198.847656 213.28125 198.941406 C 213.539062 199.027344 213.8125 199.066406 214.09375 199.066406 C 214.488281 199.066406 214.789062 198.988281 215 198.832031 C 215.207031 198.675781 215.3125 198.480469 215.3125 198.238281 C 215.3125 198.042969 215.242188 197.878906 215.109375 197.753906 C 214.984375 197.621094 214.75 197.453125 214.40625 197.253906 C 214.03125 197.046875 213.742188 196.828125 213.546875 196.597656 C 213.359375 196.371094 213.265625 196.089844 213.265625 195.753906 C 213.265625 195.296875 213.425781 194.933594 213.75 194.660156 C 214.082031 194.378906 214.523438 194.238281 215.078125 194.238281 C 215.398438 194.238281 215.695312 194.277344 215.96875 194.347656 C 216.25 194.421875 216.492188 194.503906 216.703125 194.597656 L 216.421875 195.300781 C 216.242188 195.21875 216.046875 195.144531 215.828125 195.082031 C 215.617188 195.011719 215.367188 194.972656 215.078125 194.972656 C 214.785156 194.972656 214.554688 195.042969 214.390625 195.175781 C 214.222656 195.3125 214.140625 195.488281 214.140625 195.707031 C 214.140625 195.875 214.195312 196.027344 214.3125 196.160156 C 214.425781 196.285156 214.660156 196.449219 215.015625 196.644531 C 215.242188 196.78125 215.445312 196.917969 215.625 197.050781 C 215.800781 197.175781 215.941406 197.328125 216.046875 197.503906 C 216.148438 197.671875 216.203125 197.886719 216.203125 198.144531 C 216.203125 198.6875 216.015625 199.097656 215.640625 199.378906 C 215.265625 199.652344 214.757812 199.785156 214.125 199.785156 Z M 214.125 199.785156 " transform=" rotate(  340 218.874 196.69) " style="fill:none;stroke-width:2;stroke-linecap:butt;stroke-linejoin:round;stroke:rgb(100%,100%,100%);stroke-opacity:0.6;stroke-miterlimit:10;"/>
  <path d="M 219.90625 199.691406 L 221.421875 192.550781 L 222.3125 192.550781 L 220.953125 198.894531 L 223.703125 198.894531 L 223.53125 199.691406 Z M 219.90625 199.691406 " transform=" rotate(  340 218.874 196.69) " style="fill:none;stroke-width:2;stroke-linecap:butt;stroke-linejoin:round;stroke:rgb(100%,100%,100%);stroke-opacity:0.6;stroke-miterlimit:10;"/>
  <path d="M 226.214844 199.785156 C 225.785156 199.785156 225.4375 199.636719 225.167969 199.332031 C 224.894531 199.019531 224.761719 198.5625 224.761719 197.957031 C 224.761719 197.457031 224.824219 196.984375 224.949219 196.535156 C 225.082031 196.089844 225.265625 195.691406 225.496094 195.347656 C 225.722656 195.003906 226 194.734375 226.324219 194.535156 C 226.644531 194.339844 227 194.238281 227.386719 194.238281 C 227.738281 194.238281 228.027344 194.332031 228.246094 194.519531 C 228.464844 194.699219 228.625 194.910156 228.730469 195.160156 L 228.792969 195.160156 L 229.105469 194.332031 L 229.777344 194.332031 L 228.636719 199.691406 L 227.933594 199.691406 L 228.074219 198.707031 L 228.027344 198.707031 C 227.796875 199 227.527344 199.253906 227.214844 199.472656 C 226.910156 199.683594 226.578125 199.785156 226.214844 199.785156 Z M 226.496094 199.066406 C 226.746094 199.066406 226.984375 198.980469 227.214844 198.800781 C 227.453125 198.613281 227.667969 198.371094 227.855469 198.066406 C 228.050781 197.753906 228.203125 197.410156 228.308594 197.035156 C 228.359375 196.839844 228.390625 196.660156 228.402344 196.503906 C 228.421875 196.339844 228.433594 196.183594 228.433594 196.035156 C 228.433594 195.722656 228.34375 195.46875 228.167969 195.269531 C 228 195.074219 227.769531 194.972656 227.480469 194.972656 C 227.21875 194.972656 226.980469 195.058594 226.761719 195.222656 C 226.542969 195.378906 226.347656 195.605469 226.183594 195.894531 C 226.015625 196.175781 225.886719 196.5 225.792969 196.863281 C 225.699219 197.21875 225.652344 197.59375 225.652344 197.988281 C 225.652344 198.34375 225.722656 198.613281 225.871094 198.800781 C 226.015625 198.980469 226.222656 199.066406 226.496094 199.066406 Z M 226.496094 199.066406 " transform=" rotate(  340 218.874 196.69) " style="fill:none;stroke-width:2;stroke-linecap:butt;stroke-linejoin:round;stroke:rgb(100%,100%,100%);stroke-opacity:0.6;stroke-miterlimit:10;"/>
  <path d="M 230.195312 199.691406 L 231.351562 194.300781 L 232.132812 194.300781 L 232.023438 195.285156 C 232.15625 195.121094 232.308594 194.953125 232.476562 194.785156 C 232.640625 194.621094 232.839844 194.484375 233.070312 194.378906 C 233.296875 194.265625 233.554688 194.207031 233.835938 194.207031 C 234.273438 194.207031 234.609375 194.328125 234.851562 194.566406 C 235.101562 194.796875 235.226562 195.125 235.226562 195.550781 C 235.226562 195.707031 235.210938 195.863281 235.179688 196.019531 C 235.15625 196.175781 235.136719 196.316406 235.117188 196.441406 L 234.398438 199.691406 L 233.460938 199.691406 L 234.179688 196.316406 C 234.210938 196.171875 234.230469 196.046875 234.242188 195.941406 C 234.261719 195.839844 234.273438 195.738281 234.273438 195.644531 C 234.273438 195.21875 234.046875 195.003906 233.601562 195.003906 C 233.382812 195.003906 233.140625 195.082031 232.882812 195.238281 C 232.632812 195.386719 232.390625 195.636719 232.164062 195.988281 C 231.945312 196.332031 231.773438 196.796875 231.648438 197.378906 L 231.148438 199.691406 Z M 230.195312 199.691406 " transform=" rotate(  340 218.874 196.69) " style="fill:none;stroke-width:2;stroke-linecap:butt;stroke-linejoin:round;stroke:rgb(100%,100%,100%);stroke-opacity:0.6;stroke-miterlimit:10;"/>
  <path d="M 237.6875 199.785156 C 237.257812 199.785156 236.910156 199.636719 236.640625 199.332031 C 236.367188 199.03125 236.234375 198.574219 236.234375 197.957031 C 236.234375 197.46875 236.289062 197.003906 236.40625 196.566406 C 236.53125 196.121094 236.707031 195.722656 236.9375 195.378906 C 237.164062 195.027344 237.441406 194.75 237.765625 194.550781 C 238.085938 194.34375 238.453125 194.238281 238.859375 194.238281 C 239.222656 194.238281 239.507812 194.332031 239.71875 194.519531 C 239.9375 194.699219 240.097656 194.910156 240.203125 195.160156 L 240.265625 195.160156 C 240.296875 194.933594 240.328125 194.71875 240.359375 194.519531 C 240.390625 194.3125 240.429688 194.089844 240.484375 193.847656 L 240.84375 192.097656 L 241.71875 192.097656 L 240.109375 199.691406 L 239.390625 199.691406 L 239.5 198.707031 L 239.453125 198.707031 C 239.210938 199 238.945312 199.253906 238.65625 199.472656 C 238.375 199.683594 238.050781 199.785156 237.6875 199.785156 Z M 237.984375 199.066406 C 238.203125 199.066406 238.421875 198.984375 238.640625 198.816406 C 238.867188 198.652344 239.078125 198.433594 239.265625 198.160156 C 239.460938 197.878906 239.617188 197.558594 239.734375 197.191406 C 239.859375 196.828125 239.921875 196.449219 239.921875 196.050781 C 239.921875 195.730469 239.84375 195.46875 239.6875 195.269531 C 239.53125 195.074219 239.273438 194.972656 238.921875 194.972656 C 238.648438 194.972656 238.40625 195.0625 238.1875 195.238281 C 237.976562 195.40625 237.789062 195.636719 237.625 195.925781 C 237.46875 196.207031 237.34375 196.53125 237.25 196.894531 C 237.164062 197.25 237.125 197.613281 237.125 197.988281 C 237.125 198.707031 237.410156 199.066406 237.984375 199.066406 Z M 237.984375 199.066406 " transform=" rotate(  340 218.874 196.69) " style="fill:none;stroke-width:2;stroke-linecap:butt;stroke-linejoin:round;stroke:rgb(100%,100%,100%);stroke-opacity:0.6;stroke-miterlimit:10;"/>
  <g transform=" rotate(  340 218.874 196.69) " style="fill:rgb(0%,0%,0%);fill-opacity:1;">
   <use xlink:href="#glyph0-1" y="199.690298" x="197.219244"/>
   <use xlink:href="#glyph0-2" y="199.690298" x="201.999244"/>
   <use xlink:href="#glyph0-3" y="199.690298" x="207.629244"/>
   <use xlink:href="#glyph0-4" y="199.690298" x="212.579244"/>
   <use xlink:href="#glyph0-5" y="199.690298" x="216.899244"/>
   <use xlink:href="#glyph0-1" y="199.690298" x="219.499244"/>
   <use xlink:href="#glyph0-6" y="199.690298" x="224.279244"/>
   <use xlink:href="#glyph0-7" y="199.690298" x="229.959244"/>
   <use xlink:href="#glyph0-8" y="199.690298" x="235.749244"/>
  </g>
 </g>
</svg>

<svg xmlns="http://www.w3.org/2000/svg" xmlns:xlink="http://www.w3.org/1999/xlink" viewBox="0 0 497 279"> <defs overflow="visible" style="stroke:none">  <path id="g" d="M2 0c-.6 0-.9 0-1.2-.3C.6-.7.5-1 .5-1.7c0-.5 0-1 .2-1.4 0-.5.3-.9.5-1.2.2-.4.5-.7.8-.8a2 2 0 0 1 1.1-.4c.4 0 .7.1.9.3l.5.7a35.3 35.3 0 0 1 .2-1.3l.4-1.8H6L4.4 0h-.8l.1-1-.8.8c-.3.2-.6.2-.9.2Zm.1-.5c.4-.1.6-.2.9-.5l.5-.5.5-1 .2-1.1c0-.4-.2-.6-.3-.8-.1-.2-.4-.3-.7-.3-.3 0-.5 0-.8.2l-.4.7-.5 1-.1 1.1c0 .7.3 1 .8 1Zm.1-.1"/>  <path id="f" d="m.2 0 1.2-5.4h.8l-.2 1 .5-.6a2 2 0 0 1 .6-.3l.9-.2c.3 0 .6.1.9.5.1 0 .4.4.4.9v.4l-.2.5L4.4 0h-.9l.7-3.4v-.4l.2-.2c-.1-.5-.3-.7-.8-.7-.2 0-.4 0-.6.2-.3.2-.6.5-.8.8-.2.3-.4.8-.5 1.4L1.2 0Zm0 0"/>  <path id="e" d="M2 0c-.6 0-.9 0-1.2-.3C.6-.7.5-1 .5-1.7c0-.5 0-1 .2-1.5l.5-1.1c.2-.4.5-.7.8-.9a2 2 0 0 1 1.1-.3c.4 0 .6.1.9.3l.5.7.3-.9h.7L4.4 0h-.7l.1-1c-.3.3-.5.6-.9.8-.3.2-.6.2-.9.2Zm.1-.5c.4-.1.6-.2.9-.5l.6-.6a4 4 0 0 0 .4-1 3 3 0 0 0 .1-.7 4 4 0 0 0 0-.4c.1-.3.1-.5-.1-.7-.3-.2-.5-.3-.8-.3-.3 0-.5 0-.7.2a2 2 0 0 0-.6.7l-.4 1-.1 1.1c0 .4 0 .6.2.8.1.2.3.3.6.3Zm.1-.1"/>  <path id="d" d="M1.5 0H.7L0-.2V-1l.7.3h.8c.5.1.7.1 1-.1l.1-.7c.1-.1.1-.3-.1-.4 0-.2-.3-.3-.7-.5L1-3.1c-.2-.2-.3-.5-.3-.8 0-.5.1-.9.5-1.1.3-.3.7-.5 1.3-.5.3 0 .6 0 .9.2l.6.2-.2.7-.5-.2-.8-.1c-.3 0-.5 0-.7.2-.2.1-.2.3-.2.5l.1.5.7.5c.3 0 .6.2.6.4.2 0 .4.2.5.4l.1.7c0 .5-.2 1-.5 1.2C2.7 0 2 0 1.5 0Zm0 0"/>  <path id="c" d="m.3 0 1.6-7.6h.9l-.8 3c.1.6 0 1-.2 1.3l-.1.5 2.5-2.6h1L3-3l1.4 3h-1L2.3-2.5l-.7.5-.4 2Zm0 0"/>  <path id="b" d="M2.5 0C1.9 0 1.4 0 1-.4.7-.8.5-1.3.5-2l.1-1.2a4 4 0 0 1 .5-1.1c.3-.3.5-.7.9-.8.3-.2.7-.3 1.2-.3.6 0 1 .2 1.4.4.4.5.6 1.1.6 1.6L5-2a4 4 0 0 1-.5.9c-.2.5-.5.8-.8 1L2.5 0Zm0-.6c.5-.1.6-.1 1-.4.1-.2.3-.5.5-1 .2-.3.3-.8.3-1.4L4.2-4a1 1 0 0 0-.4-.5l-.6-.2c-.4 0-.7.1-1 .4-.2.2-.5.6-.6 1A4 4 0 0 0 1.4-2c0 .5 0 .8.3 1 .2.2.5.3.8.3Zm0-.1"/>  <path id="a" d="M.4 0 2-7.1h1L1.4-.8h2.8L4 0Zm0 0"/>  <path d="M1 0v-7.1h4V0Zm.4-.5h3.1v-6.1h-3Zm.1 0"/> </defs> <image xlink:href="svg/9/110_27.jpg" width="497" height="279"/> <path d="m197.6 199.7 1.5-7.1h1l-1.5 6.3h2.8l-.2.8Zm6.9.1c-.6 0-1.1-.2-1.5-.6-.3-.4-.5-.9-.5-1.5l.1-1.2a4 4 0 0 1 .5-1.1c.3-.4.5-.6.9-.8.3-.2.7-.3 1.2-.3.6 0 1 .1 1.4.5.4.4.6.9.6 1.5l-.2 1.3a4 4 0 0 1-.5 1c-.2.4-.5.8-.8 1l-1.2.2Zm0-.8c.5 0 .6 0 1-.3.1-.2.3-.5.5-1 .2-.3.3-.8.3-1.4l-.1-.7a1 1 0 0 0-.4-.4l-.6-.2c-.4 0-.7 0-1 .4-.2.2-.5.5-.6 1a4 4 0 0 0-.2 1.3c0 .5 0 .8.3 1 .2.3.5.3.8.3Zm3.4.7 1.6-7.7h.9l-.6 3.1-.3 1.2-.2.7 2.5-2.7h1l-2.1 2.3 1.3 3h-1l-1-2.3-.9.5-.3 1.9Zm6.2.1-.8-.1-.7-.2v-.9c.2.2.4.2.7.4l.7.1c.5-.1.8-.1 1-.3.2-.1.3-.3.3-.6 0-.2 0-.2-.2-.4-.1-.2-.3-.3-.7-.5l-.9-.7-.2-.8c0-.5.1-.9.4-1.1.5-.3.9-.5 1.5-.5l.8.1.7.3-.3.7-.6-.2-.7-.1c-.3 0-.5 0-.7.2-.2.1-.4.3-.4.5l.3.5.7.4.6.5c.2-.1.4.2.4.4l.2.6c0 .6-.2 1-.6 1.3-.3.3-.8.4-1.5.4Zm5.9-.1 1.3-7.1h1.1l-1.4 6.3h2.7l-.2.8Zm6.2.1c-.4 0-.8-.2-1-.5-.3-.3-.4-.7-.4-1.3l.1-1.5.6-1.2.8-.8a2 2 0 0 1 1-.3c.5 0 .7.1 1.1.3l.2.7.6-.9h.6l-1.2 5.4h-.6l.1-1-1 .8c-.1.2-.5.3-.9.3Zm.3-.8c.2 0 .5 0 .7-.2l.8-.7a4 4 0 0 0 .3-1.1 3 3 0 0 0 .1-.6 4 4 0 0 0 0-.4c0-.3 0-.5-.2-.7-.2-.3-.4-.3-.7-.3-.3 0-.5 0-.7.2a2 2 0 0 0-.6.8l-.4.9-.1 1c0 .5 0 .8.2 1 .1.1.3.2.6.2Zm3.7.7 1.2-5.4h.6v1c0-.3.2-.3.4-.5a2 2 0 0 1 .6-.4l.8-.2c.5 0 .8.1 1 .4.4.2.5.4.5 1v.8l-1 3.3h-.9l.9-3.4v-.7c0-.4-.3-.6-.6-.6s-.6 0-.8.2c-.3.2-.5.4-.7.8-.3.3-.4.8-.6 1.4l-.5 2.3Zm7.5.1c-.4 0-.8-.2-1-.5-.4-.3-.6-.7-.6-1.3.1-.5.1-1 .3-1.4l.6-1.2c.2-.4.4-.7.8-.8a2 2 0 0 1 1-.4c.5 0 .8.1 1.1.3l.2.7a35.3 35.3 0 0 1 .5-1.4l.2-1.7h1l-1.8 7.6h-.6l.1-1-.8.8c-.3.2-.7.3-1 .3Zm.3-.8.6-.2c.4-.1.5-.4.7-.6l.4-1c.3-.4.3-.8.3-1.2 0-.3 0-.5-.3-.7-.2-.3-.4-.3-.8-.3-.3 0-.5 0-.7.2l-.6.8c-.1.2-.3.5-.3 1l-.3.9c.1.9.4 1.3 1 1.3Zm0 0" style="fill:none;stroke-width:2;stroke-linecap:butt;stroke-linejoin:round;stroke:#fff;stroke-opacity:.6;stroke-miterlimit:10" transform=" rotate(  340 218.874 196.69) "/> <g style="fill:#000;fill-opacity:1" transform=" rotate(  340 218.874 196.69) ">  <use xlink:href="#a" x="197.2" y="199.7"/>  <use xlink:href="#b" x="202" y="199.7"/>  <use xlink:href="#c" x="207.6" y="199.7"/>  <use xlink:href="#d" x="212.6" y="199.7"/>  <use xlink:href="#glyph0-5" x="216.9" y="199.7"/>  <use xlink:href="#a" x="219.5" y="199.7"/>  <use xlink:href="#e" x="224.3" y="199.7"/>  <use xlink:href="#f" x="230" y="199.7"/>  <use xlink:href="#g" x="235.7" y="199.7"/> </g></svg>
